X:1
T:El Sueño
T:El Sueño Reverie
T:José Viñas
T:A mi apreciable amigo y discipulo D. Jose Villa
T:by IMSLP - Public Domain
T:by IMSLP - Public Domain
C:José Viñas
Z:by IMSLP - Public Domain
%%score ( 1 2 )
L:1/8
Q:1/4=88
M:6/8
K:C
V:1 treble transpose=-12 nm="Guitar" snm="Guit."
V:2 treble transpose=-12 
V:1
"^Andante" EGB c!1!^d!1!e | g6 | !4![cg][Bg][cg] [cg][Bg][cg] | !4![dg]2 !4!d'/>b/ g3 | %4
w: ||||
 !4!FGB !1!^c!1!d!1!e | !1!f3 !4![Bda]3 | !4![cg][Bf][ce] !2![Ad] !4![=F_Ae]G | G6 |: %8
w: |||Arm.|
"^REVERIE." e/e/e/e/e/e/ e/e/!4!d/d/c/c/ | g/g/g/g/g/g/ g/g/g/g/g/g/ | %10
w: ||
 g/g/g/g/g/g/ g/g/e/e/!3!d/d/ | !4!g/g/g/g/g/g/ g/g/g/g/g/g/ | e/e/e/e/e/e/ e/e/e/e/!4!d/d/ | %13
w: |||
 d/d/d/d/c/c/ e/e/e/e/e/e/ | !1!d/d/d/d/g/g/ !3!^f/f/e/e/f/f/ |1 !4!g z z z2 z :|2 [Bg]GG GGG |: %17
w: ||||
 F/[GB]/[GB]/[GB]/[GB]/[GB]/ F/[GB]/E/[GB]/D/[GB]/ | %18
w: |
 E/[Gc]/[Gc]/[Gc]/[Gc]/[Gc]/ E/[Gc]/D/!4![Ge]/C/[Ge]/ | %19
w: |
 B,/[Gf]/[Gf]/[Gf]/[Gf]/[Gf]/ G,/[Bf]/A,/!1![cf]/B,/!4![df]/ | %20
w: |
 C/[ce]/[ce]/[ce]/[ce]/[ce]/ !4!g/g/g/g/g/g/ | !4!a/a/a/a/a/a/ !4!a/a/a/a/a/a/ | %22
w: ||
"^5a. ceia." c'/c'/c'/c'/c'/c'/ c'/c'/b/b/a/a/ |"^3a. ceia." f/g/g/g/g/g/ g/g/f/f/d/d/ |1 %24
w: ||
 [EGc] z z z2 z ::2 c/c/c/c/c/c/ e/e/e/e/e/e/ || !4!^d/d/d/d/d/d/ !4!=d/d/d/d/d/d/ :: %27
w: |||
"^5a. ceia." c/c/c/c/c/c/"^5a. ceia." c/c/c/c/c/c/ | %28
w: |
"^5a. ceia.""_dim." c/c/c/c/c/c/"^5a. ceia." c/c/c/c/c/c/ ::"^Arm." [EGc]3 !1 2![Ge]3 | %30
w: ||
"^Arm." [CEGc]3 !1 2![Ge]3 | !fermata![EGc]6 |] %32
w: ||
V:2
 E,G,B, C!3!^D!3!E | G6 | !2![EG][DG][EG] [EG][DG][EG] | !2![FG]2 z z2 z | F,G,B, !3!^C!3!D!3!E | %5
w: |||||
 F3 !1!F3 | !2![EG][DG][CG] [A,^F] B,2 | x6 |: CEG CEG | CEG cGE | DGB DG!4!B | !1!B,!2!FG !3!dGF | %12
w: |||||||
 CEG !2!B,!3!E^G | A,!2!D!3!A CAc | !3!D!4!G!2!B DA!4!c |1 [GB]F/E/D/C/ B,/A,/G,/^G,/A,/B,/ :|2 %16
w: ||||
 GG,G, G,G,G, |: !>!F3 FED | E3 EDC | B,3 G,A,B, | C3 EGc | ^Fc!1!d !4!F!3!c!2!_e | Gce Gce | %23
w: |* marcar el * *|bajo. * * *|||||
 G,GB G,GB |1 CE,F, G,/A,/B,/C/D/E/ ::2 CEG CGc || !2!C!3!^F!1!A !2!C!3!=F!1!_A :: CEG G,EG | %28
w: |||||
 E,EG G,EG :: C3 x3 | x6 | !fermata!C6 |] %32
w: ||||

